X: 1
T: Moorlough Shore, The
Z: zfay
S: https://thesession.org/tunes/15596#setting29253
R: hornpipe
M: 4/4
L: 1/8
K: Fmaj
|: df | g2 fd g3 f/2d/2 | c3 d G2 z G/2A/2 | BdcB G G2 F |
G6 df | g2 fd g3 f/2d/2 | c3 d G2 z G/2A/2 | BdcB G G2 F |
G6 GA | B3 G/2A/2 Bc | de f>g fd c2 |z f g3 g fg |a2 g6 |
ba g2 gf g2 |B2 c2 f2 d2 | z G/2A/2 BdcB G G2 F | G6 z2 :|
